!!!COM: Bach, Johann Sebastian
!!!OPR: Joh. Seb. Bachs vierstimmige Choralges‰nge
!!!XEN: Four-part Chorales
!!!OTL: 152. O wie selig seid ihr doch, ihr Frommen
!!!SCT: BWV 405
!!!SCA: Thematisch-systematisches Verzeichnis der musikalischen Werke Johann Sebastian Bach: Bach-Werke-Verzeichnis (Schmieder)
!!!YOR: Bach Gesellschaft Edition xxxix
!!!ENC: Steven Rasmussen
!!!CDT: 1685/3//-1750/7/28/
!!!OCY: Deutschland
!!!YEC: Copyright (c) 1994, 2000 Center for Computer Assisted Research in the Humanities
!!!YEM: Rights to all derivative editions reserved
!!!YEN: United States of America
**kern	**kern	**kern	**kern	**silbe
*I:[BASSO]	*I:[TENORE]	*I:[ALTO]	*I:[SOPRANO]	*I:[SOPRANO]
*clefF4	*clefGv2	*clefG2	*clefG2	*
*k[b-]	*k[b-]	*k[b-]	*k[b-]	*
*d:	*d:	*d:	*d:	*
*M4/4	*M4/4	*M4/4	*M4/4	*
=1-	=1-	=1-	=1-	=1-
4D	4d	4f	4a	O
8CL	4d	4g	4dd	wie
8BB-J	.	.	.	.
4AA	4e	4g	4cc	se-
4D	4d	4f	8b-L	-lig
.	.	.	8aJ	.
=2	=2	=2	=2	=2
4GG	8dL	8fL	4b-	seid
.	8B-J	8eJ	.	.
8AAL	4c	4f	4a	ihr
8BB-J	.	.	.	.
4C	4c	8fL	4g	doch,
.	.	8eJ	.	.
4F	4c	4f	8aL	ihr
.	.	.	8b-J	.
=3	=3	=3	=3	=3
4BB-	8dL	4f	2g	From-
.	8B-	.	.	.
4C	8G	4e	.	.
.	8cJ	.	.	.
2FF;	2A;	2c;	2f;	-men,
=4	=4	=4	=4	=4
4F	8cL	4f	8aL	die
.	8dJ	.	8b-J	.
8EL	8eL	8gL	4cc	ihr
8F#J	8dJ	8aJ	.	.
8GL	4d	4g	4.bn	durch
8FnJ	.	.	.	.
4E	4e	4g	.	.
.	.	.	8cc#	den
=5	=5	=5	=5	=5
8F#L	8dL	8aL	4dd	Tod
8G#J	8BnJ	8bnJ	.	.
4A	4e	4a	8ccL	zu
.	.	.	8ddJ	.
4C	4e	4a	4ee	Gott
4D	4f	4a	8ddL	ge-
.	.	.	8ccJ	.
=6	=6	=6	=6	=6
4E	8Bn	4a	2bn	-kom-
.	4e	.	.	.
4EE	.	4g#	.	.
.	8d	.	.	.
2AA;	2c#;	2e;	2a;	-men!
=7	=7	=7	=7	=7
4r	4r	4r	4r	.
4AA	4E	4c#	4a	Ihr
4BBn	4D	4d	4g	seid
4C#	4A	4e	4e	ent-
=8	=8	=8	=8	=8
4D	2A	4e	2f	-gan-
4DD	.	4d	.	.
2AA;	2A;	2c#;	2e;	-gen
=9	=9	=9	=9	=9
4F	4A	4d	4d	al-
4C#	4A	4A	4e	-ler
4D	8AL	4d	4f	Not,
.	8B-J	.	.	.
4E	8AL	4c	4g	die
.	8GJ	.	.	.
=10	=10	=10	=10	=10
4F	8FL	4c	4a	uns
.	8AJ	.	.	.
8EL	8GL	4f	4bn	noch
8DJ	8FJ	.	.	.
4E	4G	4e	4cc#	h√§lt
8FL	8AL	8dL	4dd	ge-
8GJ	8B-J	8eJ	.	.
=11	=11	=11	=11	=11
4A	2A	8fL	4dd	-fan-
.	.	16eL	.	.
.	.	16dJJ	.	.
4AA	.	4e	4cc#	.
2D;	2A;	2f#;	2dd;	-gen.
==|!	==|!	==|!	==|!	==|!
*-	*-	*-	*-	*-
!!!RWG: Key is interpreted using the Humdrum key tool.
!!!END: 1994/07/29
!!!EMD: Converted from MuseData to Humdrum Dec 19, 2000, by Andreas Kornstaedt using muse2kern.
!!!EED: Craig Stuart Sapp
!!!EEV: 2024/03/31
!!!ONB: Some non-unicode characters
!!!filter-keyboard: satb2gs
